!!!XEN: Initiation song
!!!AGN: Mide' (Grand Medicine) ceremonial song
!!!COM: Anonymous
!!!CNT: Native American -- Ojibway
!!!TXO: Ojibway
!!!MLC: White Earth reservation, northern Minnesota, U.S.A.
!!!MRD: 1907-1909///
!!!MPN: Main'ans ("Little wolf")
**kern
*MM168
*Imale
*k[b-e-a-]
*clefF4
*M4/4
4c
8c
8c
=1
2c
8G
8G
4G
=2
2c
4c
8c
8B-
=3
2G
8E-
8E-
4E-
=4
2G
4G
8F
8F
=5
2E-
8C
8C
4C
=6
2F
4E-
8E-
8E-
=7
2E-
8C
8C
4C
=8
2C
4C
8C
8C
=9
2C
8C
8C
4C
=10
*M2/4
4..C
16C
=11
*M3/4
8.C
16C
4C
4G
=12
4G
8E-
8E-
4E-
=13
*M4/4
2G
4F
8E-
8E-
=14
2E-
8C
8C
4C
=15
2F
4F
8E-
8E-
=16
2E-
8C
8C
4C
=17
2C
4C
8C
8C
=18
2C
8C
8C
4C
=19
2C
==
*-
!!!OCL: Frances Densmore
!!!YOR: Chippewa [i.e., Ojibway] Music, Bulletin 45 of the Bureau of American Ethnology, Smitsonian Institution
!!!ONM: 63
!!!PPG: 81
!!!PUB: published
!!!PPR: Government Printing Office
!!!PPP: Washington, D.C.
!!!PDT: 1909///
!!!EST: missing clef changes, text, drum tempo, and drum part
!!!YEC: Copyright 1998 Paul von Hippel
!!!YEM: Rights to all derivate electronic formats reserved.
!!!EFL: 5/42
